X: 203
%
U:~=!turn!
T: Gillean an Fheilidh
T: Lads in the Kilt
C:From Miss F. Morison's Collection
O:Scotland
B:Keith Norman MacDonald : "The Skye collection of the best reels & strathspeys extant" : 1887
Z:Ralph Palmer
R:Jig
M:6/8
L:1/8
K:D
"Slowly."e |: d>BA A2B | Tdfe dBA | d>BA B2g | aAa Tf2e :| Td>ef g>eg | a>Aa f>ed |
Td>ef g>eg | a>Aa Tf2e | d>ef g>eg | a>Aa f>ef | d>BA TB2g | a>Aa Tf2e | d>ef g>eg |
a>Aa f>ef | d>ef g>eg | a>Aa Tf2e | Td>ef g2{/A}A | a2{/A}A f>ef | d>BA TB2g | aAa Tf2e |]


